X:1
T:Engelska efter Per Nilsson Dahlberg
T:(SvL Skne nr. 173)
S:efter Per Nilsson Dahlberg
S:Svenska Ltar
R:Engelska
Z:Patrik Mnsson, 2009-01-03
O:Nym, Skne
M:2/4
L:1/16
K:F
|: fcAc BdcB | AFAc BdcB | AFAc cBAB | !trill!(A2G2) G4 |
fcAc BdcB | AFAc BdcB | ABcd e(fg)e | f2a2 f4 :|
|: gece gbag | afef cfga | bagf gfed | !trill!(d2c2) c4 |
dBFB dfed | cAFA cfed | cfed cBAG | !trill!(G2F2) F4 :|
